X:1
T:Title
%%score 1 { 2 | 3 }
L:1/8
Q:1/4=102
M:4/4
K:Bb
V:1 treble nm="Grand Piano, Soprano"
V:2 bass nm="Choir Pad, Bass"
V:3 bass 
V:1
 [DF]2 [DB]2 [EB]2 .[EA]2 | [EF]2 [Ec]2 [Ec]2 .[DB]2 | [DF][Fd][Ec][DB] [CA]2 [=EG]2 | %3
w: By~James~McGranahan * * *|||
 F2 C2 F2 E2 | [DF]2 [FB]2 [FA]2 [EG]2 | [EG]2 [Ge]2 [Fd]2 [Fc]2 | [Ff][FB][Gc][Ge] [Fd]2 [Ec]2 | %7
w: ||||
 [DB]6 FF | B<B [Fd]>[Fd] [Fd][Ec][DB][FA] | [EG]<[EG] [Ge]>[Ge] [Ge][Fd][=Ec][EB] | %10
w: |||
 [FA]2 [Fc]2 [=EG]2 [Ec]2 | F2 [Ge]>[Ge] [Fd]2 .[Ec]2 | [DB]2 [FB]2 [FA]2 [EG]2 | %13
w: |||
 [Ge]2 [Ge]2 [Fd]2 [Fc]2 | [Ff][FB][Gc][Ge] [Fd]2 [Ec]2 | [DB]8 |] %16
w: |||
V:2
 B,2 F,2 F,2 .F,2 | A,2 A,2 B,2 .B,2 | B,B,F,F, F,2 B,2 | A,2[K:treble] E2 D2 C2 | %4
 B,2 B,2[K:bass] B,2 B,2 | C2 B,2 B,2 B,2 | B,B,B,B, B,2 A,F, | F,6 F,F, | B,<B, B,>B, B,F, z2 | %9
 z2 B,>B, CG,G,[K:treble]C | C2 C2 B,2 B,2 | A,2 E>E D2 .C2 | B,2 B,2 B,2 B,2 | C2 B,2 B,2 A,2 | %14
 B,B,B,B, B,2 A,F, | F,8 |] %16
V:3
 B,,2 B,,2 C,2 .C,2 | F,2 F,2 B,,2 .B,,2 | B,,B,,A,,B,, C,2 C,2 | F,6 z2 | B,,2 D,2 E,2 E,2 | %5
 C,2 C,2 F,2 F,E, | D,D,E,C, F,2 .F,2 | B,,6 z2 | z2 B,,>B,, B,,B,, z2 | z2 E,>E, C,C,C,C, | %10
 F,2 A,,2 C,2 C,2 | F,2 z2 z4 | z2 D,2 E,2 E,2 | C,2 C,2 F,2 F,E, | D,D,E,C, F,2 .F,2 | B,,8 |] %16

